svg/emoji_u2697.svg

<svg width="128" height="128" viewBox="0 0 128 128" fill="none" xmlns="http://www.w3.org/2000/svg">
<path d="M43.34 65.46L46.01 115.46C46.06 116.63 47.02 117.55 48.19 117.55C49.36 117.55 50.32 116.63 50.37 115.46L53.04 65.46H43.34Z" fill="#2F7889" style="fill:#2F7889;fill:color(display-p3 0.1843 0.4706 0.5373);fill-opacity:1;"/>
<path d="M48.0899 95.01C45.9499 95.74 45.3499 98.16 45.1899 100.11C45.1899 100.11 45.7799 110.12 46.0099 115.47C46.0599 116.64 47.0199 117.56 48.1899 117.56C49.3599 117.56 50.3199 116.64 50.3699 115.47C50.6599 109.98 51.2099 97.6799 51.2099 97.6799C51.2099 97.6799 50.2399 94.28 48.0899 95.01Z" fill="#84B0C1" style="fill:#84B0C1;fill:color(display-p3 0.5176 0.6902 0.7569);fill-opacity:1;"/>
<path opacity="0.75" d="M121.64 31.3501C121.64 31.3501 106.1 24.0901 90.34 16.0101C78.3 9.8401 63.69 3.6001 48.48 3.6001C24.88 3.6001 5.73999 22.7401 5.73999 46.3501C5.73999 69.9601 24.88 89.0901 48.48 89.0901C72.08 89.0901 91.22 69.9501 91.22 46.3501C91.22 45.4901 91.19 44.6401 91.14 43.7901L116.18 49.6601C118.86 50.2401 122.07 46.6701 123.34 42.0701C124.61 37.4701 124.04 32.3601 121.64 31.3501Z" fill="#81D4FA" style="fill:#81D4FA;fill:color(display-p3 0.5059 0.8314 0.9804);fill-opacity:1;"/>
<path d="M11.13 48.8901C11.13 67.7601 29.42 83.9901 48.49 83.9901C67.56 83.9901 85.85 67.1501 85.85 48.8901H11.13Z" fill="#47BCA0" style="fill:#47BCA0;fill:color(display-p3 0.2784 0.7373 0.6271);fill-opacity:1;"/>
<path d="M73.57 74.1001L71.34 68.3701L23.3 70.4801L22.73 73.5601C25.5 76.1601 28.67 78.3401 32.13 80.0101C31.05 78.4001 29.94 75.9001 33.66 76.4601C33.66 76.4601 40.16 77.5101 48.51 77.5101C56.86 77.5101 64.75 76.3101 64.75 76.3101C68.08 76.3301 65.64 79.5301 65.64 79.5301C68.51 78.0701 71.18 76.2401 73.57 74.1001Z" fill="#2FAF89" style="fill:#2FAF89;fill:color(display-p3 0.1843 0.6863 0.5357);fill-opacity:1;"/>
<path d="M48.49 53.6002C69.1234 53.6002 85.85 51.3795 85.85 48.6402C85.85 45.9008 69.1234 43.6802 48.49 43.6802C27.8566 43.6802 11.13 45.9008 11.13 48.6402C11.13 51.3795 27.8566 53.6002 48.49 53.6002Z" fill="#80FCCF" style="fill:#80FCCF;fill:color(display-p3 0.5020 0.9882 0.8132);fill-opacity:1;"/>
<path d="M19.6 72.3101L4.15999 121.42C3.72999 122.51 4.22999 123.74 5.29999 124.21C6.36999 124.68 7.61999 124.23 8.12999 123.18L28.36 72.3101H19.6Z" fill="#84B0C1" style="fill:#84B0C1;fill:color(display-p3 0.5176 0.6902 0.7569);fill-opacity:1;"/>
<path d="M77.12 72.3101H68.38L88.6 123.18C89.11 124.23 90.36 124.68 91.43 124.21C92.5 123.74 93 122.51 92.57 121.42L77.12 72.3101Z" fill="#84B0C1" style="fill:#84B0C1;fill:color(display-p3 0.5176 0.6902 0.7569);fill-opacity:1;"/>
<path d="M48.2 75.3002C20.87 75.3002 10.81 69.1902 10.35 68.9302C8.43999 67.8402 6.58999 65.8402 6.56999 63.6502C6.55999 60.9802 8.44999 60.3502 8.44999 60.3502C12.57 61.3302 23.5 67.3502 48.2 67.3502C73.18 67.3502 88.82 60.2802 88.92 60.2202C88.92 60.2202 90.58 61.4702 90.57 63.9102C90.56 66.0902 89.21 68.3202 86.75 69.4202C86.25 69.6502 75.47 75.3002 48.2 75.3002Z" fill="#84B0C1" style="fill:#84B0C1;fill:color(display-p3 0.5176 0.6902 0.7569);fill-opacity:1;"/>
<path d="M77.19 72.5199C83.58 71.0599 86.5 69.5399 86.75 69.4299C88.33 68.7199 89.44 67.5399 90.05 66.2199C90.72 64.6399 90.57 63.9199 90.57 63.9199C90.46 63.9699 73.18 71.8999 48.2 71.8999C23.5 71.8999 10.73 65.1399 6.60998 64.1599C6.60998 64.1599 6.56998 64.8199 7.21998 65.9099C7.92998 67.1699 9.11998 68.2399 10.35 68.9399C10.58 69.0699 13.33 70.7299 19.59 72.3199L18.27 76.5199C18.3 76.5299 18.32 76.5299 18.34 76.5399C18.77 75.2399 20.6 74.4999 22.61 74.8799C24.72 75.2799 26.2 76.7599 25.96 78.1999C25.98 78.1999 25.99 78.2099 26.01 78.2099L27.71 73.9399C27.71 73.9399 35.67 75.3199 48.19 75.3199C60.71 75.3199 69.04 74.0099 69.04 74.0099L70.75 78.2999C70.77 78.2999 70.8 78.2899 70.83 78.2899C70.83 78.2799 70.82 78.2799 70.82 78.2699C70.54 76.8199 72.04 75.3199 74.17 74.9099C76.28 74.5099 78.2 75.3399 78.51 76.7699H78.52L77.19 72.5199Z" fill="#2F7889" style="fill:#2F7889;fill:color(display-p3 0.1843 0.4706 0.5373);fill-opacity:1;"/>
<g opacity="0.6">
<path d="M80.91 15.3502C86.54 17.5302 116.13 31.5602 118.58 32.8202C121.61 34.3802 120.45 39.8202 116.54 38.6202C110.88 36.8702 88.5 23.7302 84.06 21.2202C72.82 14.8602 75.29 13.1702 80.91 15.3502Z" fill="white" style="fill:white;fill-opacity:1;"/>
</g>
<g opacity="0.6">
<path d="M38.1 30.9802C35.8 34.3302 33.35 37.3202 31.73 41.1202C30.11 44.9202 29.16 48.9602 27.8 52.8502C27.19 54.5902 26.27 56.5202 24.48 56.9802C23 57.3602 21.41 56.5202 20.51 55.2802C19.61 54.0402 19.27 52.4902 19.05 50.9802C18.02 43.7402 19.08 35.6902 21.8 29.0402C23.7 24.4102 27.26 19.9002 32.47 18.4002C39.22 16.4602 43.35 24.0202 38.8 29.8502C38.52 30.2102 38.35 30.6202 38.1 30.9802Z" fill="white" style="fill:white;fill-opacity:1;"/>
</g>
<path d="M19.16 63.7902C15.2 62.6202 12.85 61.7602 12.26 62.9602C11.57 64.3602 13.73 66.1902 25.86 68.4802C37.99 70.7702 45.75 70.1002 49.03 68.6802C52.31 67.2602 43.78 67.2602 40.77 67.0702C31.24 66.4802 23.11 64.9602 19.16 63.7902Z" fill="#B9E4EA" style="fill:#B9E4EA;fill:color(display-p3 0.7255 0.8941 0.9176);fill-opacity:1;"/>
</svg>

<?xml version="1.0" encoding="utf-8"?>
<!-- Generator: Adobe Illustrator 25.2.3, SVG Export Plug-In . SVG Version: 6.00 Build 0)  -->
<svg version="1.1" id="Layer_2" xmlns="http://www.w3.org/2000/svg" xmlns:xlink="http://www.w3.org/1999/xlink" x="0px" y="0px"
	 viewBox="0 0 128 128" style="enable-background:new 0 0 128 128;" xml:space="preserve">
<g>
	<path style="fill:#2F7889;" d="M43.34,65.46l2.67,50c0.05,1.17,1.01,2.09,2.18,2.09c1.17,0,2.13-0.92,2.18-2.09l2.67-50H43.34z"/>
	<path style="fill:#84B0C1;" d="M48.09,95.01c-2.14,0.73-2.74,3.15-2.9,5.1c0,0,0.59,10.01,0.82,15.36
		c0.05,1.17,1.01,2.09,2.18,2.09c1.17,0,2.13-0.92,2.18-2.09c0.29-5.49,0.84-17.79,0.84-17.79S50.24,94.28,48.09,95.01z"/>
	<path style="opacity:0.75;fill:#81D4FA;" d="M121.64,31.35c0,0-15.54-7.26-31.3-15.34C78.3,9.84,63.69,3.6,48.48,3.6
		C24.88,3.6,5.74,22.74,5.74,46.35s19.14,42.74,42.74,42.74s42.74-19.14,42.74-42.74c0-0.86-0.03-1.71-0.08-2.56l25.04,5.87
		c2.68,0.58,5.89-2.99,7.16-7.59S124.04,32.36,121.64,31.35z"/>
	<path style="fill:#AB47BC;" d="M11.13,48.89c0,18.87,18.29,35.1,37.36,35.1s37.36-16.84,37.36-35.1H11.13z"/>
	<path style="fill:#992FAF;" d="M73.57,74.1l-2.23-5.73L23.3,70.48l-0.57,3.08c2.77,2.6,5.94,4.78,9.4,6.45
		c-1.08-1.61-2.19-4.11,1.53-3.55c0,0,6.5,1.05,14.85,1.05s16.24-1.2,16.24-1.2c3.33,0.02,0.89,3.22,0.89,3.22
		C68.51,78.07,71.18,76.24,73.57,74.1z"/>
	<ellipse style="fill:#EA80FC;" cx="48.49" cy="48.64" rx="37.36" ry="4.96"/>
	<path style="fill:#84B0C1;" d="M19.6,72.31L4.16,121.42c-0.43,1.09,0.07,2.32,1.14,2.79c1.07,0.47,2.32,0.02,2.83-1.03l20.23-50.87
		H19.6z"/>
	<path style="fill:#84B0C1;" d="M77.12,72.31h-8.74l20.22,50.87c0.51,1.05,1.76,1.5,2.83,1.03c1.07-0.47,1.57-1.7,1.14-2.79
		L77.12,72.31z"/>
	<path style="fill:#84B0C1;" d="M48.2,75.3c-27.33,0-37.39-6.11-37.85-6.37c-1.91-1.09-3.76-3.09-3.78-5.28
		c-0.01-2.67,1.88-3.3,1.88-3.3c4.12,0.98,15.05,7,39.75,7c24.98,0,40.62-7.07,40.72-7.13c0,0,1.66,1.25,1.65,3.69
		c-0.01,2.18-1.36,4.41-3.82,5.51C86.25,69.65,75.47,75.3,48.2,75.3z"/>
	<path style="fill:#2F7889;" d="M77.19,72.52c6.39-1.46,9.31-2.98,9.56-3.09c1.58-0.71,2.69-1.89,3.3-3.21
		c0.67-1.58,0.52-2.3,0.52-2.3c-0.11,0.05-17.39,7.98-42.37,7.98c-24.7,0-37.47-6.76-41.59-7.74c0,0-0.04,0.66,0.61,1.75
		c0.71,1.26,1.9,2.33,3.13,3.03c0.23,0.13,2.98,1.79,9.24,3.38l-1.32,4.2c0.03,0.01,0.05,0.01,0.07,0.02
		c0.43-1.3,2.26-2.04,4.27-1.66c2.11,0.4,3.59,1.88,3.35,3.32c0.02,0,0.03,0.01,0.05,0.01l1.7-4.27c0,0,7.96,1.38,20.48,1.38
		s20.85-1.31,20.85-1.31l1.71,4.29c0.02,0,0.05-0.01,0.08-0.01c0-0.01-0.01-0.01-0.01-0.02c-0.28-1.45,1.22-2.95,3.35-3.36
		c2.11-0.4,4.03,0.43,4.34,1.86c0,0,0.01,0,0.01,0L77.19,72.52z"/>
	<g style="opacity:0.6;">
		<path style="fill:#FFFFFF;" d="M80.91,15.35c5.63,2.18,35.22,16.21,37.67,17.47c3.03,1.56,1.87,7-2.04,5.8
			c-5.66-1.75-28.04-14.89-32.48-17.4C72.82,14.86,75.29,13.17,80.91,15.35z"/>
	</g>
	<g style="opacity:0.6;">
		<path style="fill:#FFFFFF;" d="M38.1,30.98c-2.3,3.35-4.75,6.34-6.37,10.14c-1.62,3.8-2.57,7.84-3.93,11.73
			c-0.61,1.74-1.53,3.67-3.32,4.13c-1.48,0.38-3.07-0.46-3.97-1.7s-1.24-2.79-1.46-4.3c-1.03-7.24,0.03-15.29,2.75-21.94
			c1.9-4.63,5.46-9.14,10.67-10.64c6.75-1.94,10.88,5.62,6.33,11.45C38.52,30.21,38.35,30.62,38.1,30.98z"/>
	</g>
	<path style="fill:#B9E4EA;" d="M19.16,63.79c-3.96-1.17-6.31-2.03-6.9-0.83c-0.69,1.4,1.47,3.23,13.6,5.52s19.89,1.62,23.17,0.2
		c3.28-1.42-5.25-1.42-8.26-1.61C31.24,66.48,23.11,64.96,19.16,63.79z"/>
</g>
</svg>
